X:1
T:St. Alphege, 76.76
T:St. Alphege, 76.76
T:Henry John Gauntlett, 1848
T:Public Domain Courtesy of the Cyber Hymnal™
C:Henry John Gauntlett, 1848
Z:Public Domain
Z:Courtesy of the Cyber Hymnal™
%%score ( 1 2 ) ( 3 4 )
L:1/8
Q:1/4=113
M:4/4
K:G
V:1 treble 
V:2 treble 
V:3 bass 
V:4 bass 
V:1
 [DG]2 | [GB]2 [Ec]2 [Dd]2 [CG]2 | [CF]4 [B,G]2 [DG]2 | [DF]2 [DG]2 [Ac]2 [GB]2 | [FA]6 G2 | %5
 [GB]2 [Gc]2 [Fd]2 [Gd]2 | e4 [Gd]2 [DG]2 | G2 [GA]2 [GB]2 [FA]2 x | G6 |] %9
V:2
 x2 | x8 | x8 | x8 | x6 G2 | x8 | (G2 F2) x4 | G2 x7 | G6 |] %9
V:3
 [G,B,]2 | [E,G,]2 [C,G,]2 [B,,G,]2 [E,G,]2 | [D,A,]4 [G,,G,]2 [B,D]2 | %3
 [A,C]2 [G,B,]2 [F,D]2 [G,D]2 | [D,D]6 [G,B,]2 | [G,D]2 [E,G,]2 [D,A,]2 [G,B,]2 | %6
 (C2 A,2) [G,B,]2 [B,,B,]2 | [E,B,]2 [C,E]2 D3 z C | [G,B,]6 |] %9
V:4
 x2 | x8 | x8 | x8 | x8 | x8 | C,4 x4 | x4 (D,2 D,2) x | x6 |] %9

